Newaita-dark/actions/22/mail-mark-unread.svg

<svg height="22" viewBox="0 0 22 22" width="22" xmlns="http://www.w3.org/2000/svg"><g fill="#e0e0e0"><path d="m3.636719 3.808594c-1.007813 0-1.816407.8125-1.816407 1.820312v10.914063c0 1.007812.808594 1.820312 1.816407 1.820312h14.554687c1.007813 0 1.820313-.8125 1.820313-1.820312v-10.914063c0-1.007812-.8125-1.820312-1.820313-1.820312zm.910156 1.820312h12.734375c.503906 0 .910156.40625.910156.910156v9.097657c0 .503906-.40625.90625-.910156.90625h-12.734375c-.503906 0-.910156-.402344-.910156-.90625v-9.097657c0-.503906.40625-.910156.910156-.910156zm0 0"/><path d="m3.332031 4.042969-1.203125 1.351562 8.183594 7.277344c.34375.304687.859375.304687 1.203125 0l8.1875-7.277344-1.203125-1.351562-7.585938 6.742187zm0 0"/></g></svg>

<?xml version="1.0" encoding="UTF-8"?>
<svg xmlns="http://www.w3.org/2000/svg" xmlns:xlink="http://www.w3.org/1999/xlink" width="22px" height="22px" viewBox="0 0 22 22" version="1.1">
<g id="surface1">
<path style=" stroke:none;fill-rule:nonzero;fill:rgb(87.843138%,87.843138%,87.843138%);fill-opacity:1;" d="M 3.636719 3.808594 C 2.628906 3.808594 1.820312 4.621094 1.820312 5.628906 L 1.820312 16.542969 C 1.820312 17.550781 2.628906 18.363281 3.636719 18.363281 L 18.191406 18.363281 C 19.199219 18.363281 20.011719 17.550781 20.011719 16.542969 L 20.011719 5.628906 C 20.011719 4.621094 19.199219 3.808594 18.191406 3.808594 Z M 4.546875 5.628906 L 17.28125 5.628906 C 17.785156 5.628906 18.191406 6.035156 18.191406 6.539062 L 18.191406 15.636719 C 18.191406 16.140625 17.785156 16.542969 17.28125 16.542969 L 4.546875 16.542969 C 4.042969 16.542969 3.636719 16.140625 3.636719 15.636719 L 3.636719 6.539062 C 3.636719 6.035156 4.042969 5.628906 4.546875 5.628906 Z M 4.546875 5.628906 "/>
<path style=" stroke:none;fill-rule:nonzero;fill:rgb(87.843138%,87.843138%,87.843138%);fill-opacity:1;" d="M 3.332031 4.042969 L 2.128906 5.394531 L 10.3125 12.671875 C 10.65625 12.976562 11.171875 12.976562 11.515625 12.671875 L 19.703125 5.394531 L 18.5 4.042969 L 10.914062 10.785156 Z M 3.332031 4.042969 "/>
</g>
</svg>
